images/icons/social/icon.svg

<svg width="27" height="27" viewBox="0 0 27 27" fill="none" xmlns="http://www.w3.org/2000/svg">
<path fill-rule="evenodd" clip-rule="evenodd" d="M2.66667 0H24C25.4728 0 26.6667 1.19391 26.6667 2.66667V24C26.6667 25.4728 25.4728 26.6667 24 26.6667H2.66667C1.19391 26.6667 0 25.4728 0 24V2.66667C0 1.19391 1.19391 0 2.66667 0ZM2.66667 2.66667V24H24V2.66667H2.66667ZM12.1774 13.3392H14.6667V21.3333H17.3333V13.3392H19.9766V10.6725H17.3333V9.33333C17.3333 8.59695 17.9303 8 18.6667 8H20V5.33333H18.6667C16.4575 5.33333 14.6667 7.12419 14.6667 9.33333V10.6725H12.1774V13.3392Z" fill="white"/>
</svg>

<svg width="27" height="27" fill="none" xmlns="http://www.w3.org/2000/svg"><path fill-rule="evenodd" clip-rule="evenodd" d="M2.667 0H24a2.667 2.667 0 012.667 2.667V24A2.667 2.667 0 0124 26.667H2.667A2.667 2.667 0 010 24V2.667A2.667 2.667 0 012.667 0zm0 2.667V24H24V2.667H2.667zm9.51 10.672h2.49v7.994h2.666V13.34h2.644v-2.667h-2.644v-1.34c0-.736.597-1.333 1.334-1.333H20V5.333h-1.333a4 4 0 00-4 4v1.34h-2.49v2.666z" fill="#fff"/></svg>
